X:15
L:1/8
M:4/4
K:C
 efe ded | cdc B2 E | A2 B c2 d | e2 d c2 B |
 efe ded | cdc B2 E | A2 B c2 d | e6 |
 efe ded | cdc B2 e | f2 d e2 f | e2 d c2 B |
 efe ded | cdc B2 E | A2 B c2 B | A6 ||
 BcB E2 B | c2 B A2 G | ABA E2 A | B2 A c2 A |
 BcB E2 B | c2 B A2 G | A2 B c2 B | A6 :|

